Adwaita++-Dark/emotes/symbolic/face-heart-broken-symbolic.svg

<svg height="16" width="16" xmlns="http://www.w3.org/2000/svg">
  <path clip-rule="evenodd" d="m11.2307 2.00922c2.0819 0 3.7693 1.682 3.7693 3.75695h-.0004c0 1.07978-.4575 2.05251-1.1894 2.73768h.0021l-4.32278 4.02775-.73634-1.8777 1.89312-3.46052-1.60813.1425 1.16033-2.56489-1.73031-.40712v-1.15317c.6882-.73902 1.67111-1.20148 2.76251-1.20148zm-4.2738.69732c-.6168-.43902-1.37195-.69732-2.18767-.69732-2.08183 0-3.76923 1.682-3.76923 3.75695 0 1.07968.45775 2.05241 1.18951 2.73768h-.001l4.91716 4.72055.81291-1.3491-.61069-1.3842 1.20102-2.50382-1.50637-.24428.91604-1.89313-1.52672-.42748z" fill="#e6ddff" fill-rule="evenodd"/>
</svg>

<svg xmlns="http://www.w3.org/2000/svg" width="16" height="16" version="1.1">
 <path fill="#E6DDFF" fill-rule="evenodd" d="M11.2307 2.00922C13.3126 2.00922 15 3.69122 15 5.76617H14.9996C14.9996 6.84595 14.5421 7.81868 13.8102 8.50385H13.8123L9.48952 12.5316L8.75318 10.6539L10.6463 7.19338L9.03817 7.33588L10.1985 4.77099L8.46819 4.36387V3.2107C9.15639 2.47168 10.1393 2.00922 11.2307 2.00922ZM6.9569 2.70654C6.3401 2.26752 5.58495 2.00922 4.76923 2.00922C2.6874 2.00922 1 3.69122 1 5.76617C1 6.84585 1.45775 7.81858 2.18951 8.50385H2.18851L7.10567 13.2244L7.91858 11.8753L7.30789 10.4911L8.50891 7.98728L7.00254 7.743L7.91858 5.84987L6.39186 5.42239L6.9569 2.70654Z" clip-rule="evenodd"/>
</svg>
